src/static/logos/kirby.svg

<?xml version="1.0" encoding="UTF-8" standalone="no"?>
<svg width="256px" height="291px" viewBox="0 0 256 291" version="1.1" xmlns="http://www.w3.org/2000/svg" xmlns:xlink="http://www.w3.org/1999/xlink" preserveAspectRatio="xMidYMid">
    <g>
        <path d="M128,0 L0,72.6981402 L0,217.911302 L128,290.609442 L256,217.911302 L256,72.6981402 L128,0 L128,0 Z M184.949928,148.32618 L149.058655,167.736767 L149.058655,170.300429 L184.949928,170.300429 L184.949928,198.317597 L70.8669528,198.317597 L70.8669528,170.300429 L106.758226,170.300429 L106.758226,167.553648 L70.8669528,148.32618 L70.8669528,113.533619 L128,144.297568 L184.949928,113.533619 L184.949928,148.32618 L184.949928,148.32618 Z" fill="#FF0200"></path>
    </g>
</svg>

<svg width="256" height="291" xmlns="http://www.w3.org/2000/svg" preserveAspectRatio="xMidYMid"><path d="M128 0L0 72.698v145.213l128 72.698 128-72.698V72.698L128 0zm56.95 148.326l-35.891 19.41v2.564h35.89v28.018H70.868V170.3h35.891v-2.746l-35.891-19.228v-34.792L128 144.298l56.95-30.764v34.792z" fill="#FF0200"/></svg>
